src/scalable/devices/drive-optical.svg

<svg xmlns="http://www.w3.org/2000/svg" xmlns:xlink="http://www.w3.org/1999/xlink" width="64" height="64" version="1"><defs><linearGradient id="a"><stop offset="0"/><stop offset="1" stop-opacity="0"/></linearGradient><linearGradient xlink:href="#a" id="b" x1="30.227" y1="44.169" x2="58" y2="44.169" gradientUnits="userSpaceOnUse"/></defs><rect width="52" height="52" x="-58" y="-58" rx="2.321" ry="2.321" transform="matrix(0 -1 -1 0 0 0)" fill="#666"/><path d="M32 14a18 18 0 0 0-18 18 18 18 0 0 0 18 18 18 18 0 0 0 18-18 18 18 0 0 0-18-18zm0 10.8a7.2 7.2 0 0 1 7.2 7.2 7.2 7.2 0 0 1-7.2 7.2 7.2 7.2 0 0 1-7.2-7.2 7.2 7.2 0 0 1 7.2-7.2z" fill="#4d4d4d"/><circle cx="32" cy="32" r="13" fill="#fff" paint-order="markers stroke fill"/><circle r="8" cy="32" cx="32" fill="#ed5f6c" paint-order="markers stroke fill"/><path d="M58 30.338A42.5 42.5 0 0 1 30.227 58h25.45A2.318 2.318 0 0 0 58 55.678v-25.34z" fill="url(#b)" opacity=".25"/></svg>

<?xml version="1.0" encoding="UTF-8" standalone="no"?>
<svg
   xmlns:dc="http://purl.org/dc/elements/1.1/"
   xmlns:cc="http://creativecommons.org/ns#"
   xmlns:rdf="http://www.w3.org/1999/02/22-rdf-syntax-ns#"
   xmlns:svg="http://www.w3.org/2000/svg"
   xmlns="http://www.w3.org/2000/svg"
   xmlns:xlink="http://www.w3.org/1999/xlink"
   xmlns:sodipodi="http://sodipodi.sourceforge.net/DTD/sodipodi-0.dtd"
   xmlns:inkscape="http://www.inkscape.org/namespaces/inkscape"
   width="64"
   height="64"
   version="1"
   id="svg10"
   sodipodi:docname="drive-optical.svg"
   inkscape:version="0.92.2 2405546, 2018-03-11">
  <metadata
     id="metadata16">
    <rdf:RDF>
      <cc:Work
         rdf:about="">
        <dc:format>image/svg+xml</dc:format>
        <dc:type
           rdf:resource="http://purl.org/dc/dcmitype/StillImage" />
      </cc:Work>
    </rdf:RDF>
  </metadata>
  <defs
     id="defs14">
    <linearGradient
       inkscape:collect="always"
       id="linearGradient855">
      <stop
         style="stop-color:#000000;stop-opacity:1;"
         offset="0"
         id="stop851" />
      <stop
         style="stop-color:#000000;stop-opacity:0;"
         offset="1"
         id="stop853" />
    </linearGradient>
    <linearGradient
       inkscape:collect="always"
       xlink:href="#linearGradient855"
       id="linearGradient857"
       x1="30.226562"
       y1="44.168945"
       x2="58"
       y2="44.168945"
       gradientUnits="userSpaceOnUse" />
  </defs>
  <sodipodi:namedview
     pagecolor="#ffffff"
     bordercolor="#666666"
     borderopacity="1"
     objecttolerance="10"
     gridtolerance="10"
     guidetolerance="10"
     inkscape:pageopacity="0"
     inkscape:pageshadow="2"
     inkscape:window-width="1920"
     inkscape:window-height="1022"
     id="namedview12"
     showgrid="true"
     inkscape:snap-bbox="true"
     inkscape:bbox-nodes="true"
     inkscape:zoom="1.84375"
     inkscape:cx="-216.51054"
     inkscape:cy="37.195194"
     inkscape:window-x="0"
     inkscape:window-y="28"
     inkscape:window-maximized="1"
     inkscape:current-layer="svg10">
    <inkscape:grid
       type="xygrid"
       id="grid823" />
  </sodipodi:namedview>
  <rect
     style="fill:#666666;stroke-width:0.9285714"
     width="52"
     height="52"
     x="-58"
     y="-58"
     rx="2.3214285"
     ry="2.3214285"
     transform="matrix(0,-1,-1,0,0,0)"
     id="rect4" />
  <path
     id="path825"
     d="M 32,14 A 18,18 0 0 0 14,32 18,18 0 0 0 32,50 18,18 0 0 0 50,32 18,18 0 0 0 32,14 Z m 0,10.8 A 7.2,7.2 0 0 1 39.2,32 7.2,7.2 0 0 1 32,39.2 7.2,7.2 0 0 1 24.8,32 7.2,7.2 0 0 1 32,24.8 Z"
     style="opacity:1;fill:#4d4d4d;stroke-width:0.90000004"
     inkscape:connector-curvature="0" />
  <circle
     style="opacity:1;fill:#ffffff;fill-opacity:1;stroke:none;stroke-width:2.36363626;stroke-linecap:round;stroke-linejoin:round;stroke-miterlimit:4;stroke-dasharray:none;stroke-opacity:0.03921569;paint-order:markers stroke fill"
     id="path827"
     cx="32"
     cy="32"
     r="13" />
  <circle
     r="8"
     cy="32"
     cx="32"
     id="circle829"
     style="opacity:1;fill:#ed5f6c;fill-opacity:1;stroke:none;stroke-width:1.45454538;stroke-linecap:round;stroke-linejoin:round;stroke-miterlimit:4;stroke-dasharray:none;stroke-opacity:0.03921569;paint-order:markers stroke fill" />
  <path
     style="fill:url(#linearGradient857);stroke-width:0.9285714;opacity:0.25;fill-opacity:1"
     d="M 58 30.337891 A 42.5 42.5 0 0 1 30.226562 58 L 55.677734 58 C 56.963806 58 58 56.963806 58 55.677734 L 58 30.337891 z "
     id="rect844" />
</svg>
